X: 1
T: Forty-Four
C: Becky Tracy
S: Handout at RJ practice 2018-2-13
R: reel
Z: 2018 John Chambers <jc:trillian.mit.edu>
M: C|
L: 1/8
K: Dmix
|:\
"D"FGAB d2Bd | c2Ac BGFD | FGAB d2Bd | "Bm"efdf "C"edBG |\
"D"FGAB d2Bd | c2Ac BGFD | "Am"c2Ac "G/b"BGFD | "C"EAGE [1 "D"D3E :|2 D2AB ||
|:\
"C"c3B cBAG | "D"ADDE DCA,2 | "C"c3B cBAG | "D"Addc dcAB |\
"C"c3B cBAG | "D"ADDE DCA,C | "D"F2DF "Am"EAGE |1 "D"D3E DFAB :|2 "D"HD2z2 "C"E4 |]
